packages/core/src/svgs/tokens/branded/LYX.svg

<svg width="24" height="24" viewBox="0 0 24 24" fill="none" xmlns="http://www.w3.org/2000/svg">
<path d="M13.6171 2.43836L19.2747 5.77839C19.7702 6.07607 20.1797 6.49742 20.4631 7.00113C20.7467 7.50484 20.8944 8.0736 20.8918 8.65161V15.3372C20.8944 15.9153 20.7467 16.484 20.4631 16.9877C20.1797 17.4914 19.7702 17.9128 19.2747 18.2104L13.6115 21.556C13.1222 21.8466 12.5635 22 11.9944 22C11.4252 22 10.8665 21.8466 10.3771 21.556L4.71962 18.2104C4.22518 17.9122 3.81671 17.4905 3.53419 16.9868C3.25167 16.4831 3.1048 15.9146 3.10796 15.3372V8.65161C3.10537 8.0736 3.25308 7.50484 3.5366 7.00113C3.82012 6.49742 4.22971 6.07607 4.72518 5.77839L10.3827 2.44391C10.872 2.15334 11.4307 2 12 2C12.5691 2 13.1277 2.15334 13.6171 2.44391V2.43836ZM14.6731 15.2872L16.2846 12.5975C16.5015 12.225 16.5015 11.7694 16.2736 11.3971L14.6731 8.70718C14.5619 8.52249 14.4045 8.37 14.2163 8.26474C14.0283 8.15948 13.816 8.1051 13.6004 8.10698H10.3938C9.94916 8.10698 9.54353 8.33483 9.32121 8.70718L7.72065 11.3971C7.61192 11.5783 7.55449 11.7858 7.55449 11.9972C7.55449 12.2087 7.61192 12.416 7.72065 12.5975L9.32676 15.2872C9.54911 15.6596 9.95473 15.8874 10.3938 15.8874H13.606C14.0506 15.8874 14.4562 15.6596 14.6786 15.2872H14.6731Z" fill="#FE005B"/>
</svg>

<svg xmlns="http://www.w3.org/2000/svg" width="24" height="24" fill="none" viewBox="0 0 24 24">
    <path fill="#FE005B" d="m13.617 2.438 5.658 3.34a3.33 3.33 0 0 1 1.617 2.874v6.685a3.33 3.33 0 0 1-1.617 2.873l-5.663 3.346a3.17 3.17 0 0 1-3.235 0L4.72 18.21a3.33 3.33 0 0 1-1.612-2.873V8.652a3.33 3.33 0 0 1 1.617-2.874l5.658-3.334a3.17 3.17 0 0 1 3.234 0zm1.056 12.85 1.612-2.69a1.16 1.16 0 0 0-.011-1.2l-1.6-2.69a1.24 1.24 0 0 0-1.074-.601h-3.206c-.445 0-.85.228-1.073.6l-1.6 2.69a1.17 1.17 0 0 0 0 1.2l1.606 2.69c.222.373.628.6 1.067.6h3.212c.445 0 .85-.227 1.073-.6z"/>
</svg>
